X:1
T: Jigg 2
C:Robert Mackintosh
R:Jig
Q:180
K:Eb
M:6/8
L:1/16
E2G2B2 e2g2e2|f2d2c2 d2B2e2|c2A2G2 F2B2A2|G2A2F2 E2B,2G,2|z2E2G2 B2e2g2|D2F2B2 d2f2b2|g2e2c2 f2=A2c2|B2F2D2 B,6|
E2G2B2 e2g2e2|f2d2c2 d2B2e2|c2A2G2 F2B2A2|G2A2F2 E2B,2G,2|z2E2G2 B2e2g2|D2F2B2 d2f2b2|g2e2c2 f2=A2c2|B2F2D2 B,6|
f2d2B2 f2c2=A2|B2F2D2 B,2g2f2|e2c2A2 a2d2=B2|c2G2E2 C2c'2b2|a2g2a2 f2b2a2|g2f2g2 e2f2g2|a2g2f2 e2f2d2|c2E2G2 C4d2|
e2g2b2 a2g2f2|e2g2f2 e2B2G2|c2f2a2 g2f2e2|d2f2e2 d2c2B2|c2b2a2 B2a2g2|A2g2f2 G2f2e2|F2c2B2 A2G2F2|E2E2E2 E6||
